X: 769
T: Siji shengchan
L: 1/8
M: 2/4
K: F
c2c2 [I:setbarnb 1]| 
d2c2 | 
c d c A | 
G FG2 | 
G Ac2 | 
d2c2 | 
A GF2 | 
G FG2 | 
G Ac2 | 
d fc2 | 
A G F G | 
D4 | 
A FG2 | 
A FG2 | 
G c A c | 
c FG2 | 
c Ac2 | 
G A G F | 
DF2A | 
G2G D | 
C4 | 
G A F F | 
G FG2 | 
c Ac2 | 
G A G F | 
DF2A | 
G2G D | 
C4 |]

@@@ Tune index: 9643
